X:14
T:Jackie Donnan's #2
R:mazurka
Z:id:hn-mazurka-14
M:3/4
L:1/8
K:G
GA | B2 B2 AG | A2 d2 dc | AB BA GB | AB G2 GA |
B2 B2 AG | A2 d2 dc | A2 G2 F2 | G2 G2 :|
ef | g2 fe df | e2 d2 dc | AB BA GB | AB G2 ef |
g2 fe df | e2 a2 ag | e2 a2 a2 | a2 a2 ef |
g2 fe df | e2 d2 dc | AB BA GB | AB G2 GA |
B2 B2 AG | A2 d2 dc | A2 G2 F2 | G2 G2 ||
<end>
<start>
